src/icons/paperclip.svg

<?xml version="1.0" encoding="UTF-8"?>
<svg width="512px" height="512px" viewBox="0 0 512 512" version="1.1" xmlns="http://www.w3.org/2000/svg" xmlns:xlink="http://www.w3.org/1999/xlink">
    <!-- Generator: Sketch 62 (91390) - https://sketch.com -->
    <title>paperclip</title>
    <desc>Created with Sketch.</desc>
    <g id="paperclip" stroke="none" stroke-width="1" fill="none" fill-rule="evenodd">
        <path d="M324.1,149.405484 C317.9,149.305484 312.8,154.405484 312.8,160.905484 L312.6,353.505484 C312.5,396.805484 283.2,416.205484 256,416.005484 C228.8,415.705484 199.5,395.805484 199.6,352.605484 C199.6,319.505484 199.8,186.705484 199.9,120.305484 C199.9,105.105484 205.8,93.205484 216.5,87.005484 C227,80.905484 240.6,81.005484 251.1,87.305484 C261.8,93.705484 267.6,105.705484 267.6,120.905484 L267.3,343.005484 C267.3,350.205484 265.6,356.105484 262.7,359.905484 C260.8,362.305484 258.3,363.705484 255.9,363.705484 C250.4,363.605484 244.6,356.505484 244.7,343.105484 C244.7,343.105484 244.9,178.605484 245,172.305484 C245,165.905484 240,160.605484 233.7,160.605484 C227.4,160.605484 222.4,165.705484 222.4,172.205484 L222.1,343.005484 C222.1,371.705484 239.1,386.805484 255.9,387.005484 C265.2,387.105484 274,382.605484 280.2,374.705484 C286.4,366.805484 289.8,355.905484 289.8,343.305484 L290.1,121.205484 C290.1,97.705484 280,78.105484 262.3,67.505484 C245,57.005484 222.5,56.805484 205,67.005484 C187.3,77.405484 177.1,96.805484 177,120.305484 C176.9,186.605484 176.8,319.305484 176.699811,352.605484 C176.6,409.205484 216.3,439.105484 255.6,439.509235 C275.9,439.705484 296.2,431.905484 311.3,416.705484 C325.3,402.405484 334.7,381.405484 334.7,354.005484 L334.8,161.205484 C335.4,154.605484 330.3,149.405484 324.1,149.405484 Z" id="Path" fill="#000000" fill-rule="nonzero"></path>
    </g>
</svg>

<svg xmlns="http://www.w3.org/2000/svg" width="512" height="512" viewBox="0 0 512 512">
    <path d="M324.1 149.405c-6.2-.1-11.3 5-11.3 11.5l-.2 192.6c-.1 43.3-29.4 62.7-56.6 62.5-27.2-.3-56.5-20.2-56.4-63.4 0-33.1.2-165.9.3-232.3 0-15.2 5.9-27.1 16.6-33.3 10.5-6.1 24.1-6 34.6.3 10.7 6.4 16.5 18.4 16.5 33.6l-.3 222.1c0 7.2-1.7 13.1-4.6 16.9-1.9 2.4-4.4 3.8-6.8 3.8-5.5-.1-11.3-7.2-11.2-20.6 0 0 .2-164.5.3-170.8 0-6.4-5-11.7-11.3-11.7-6.3 0-11.3 5.1-11.3 11.6l-.3 170.8c0 28.7 17 43.8 33.8 44 9.3.1 18.1-4.4 24.3-12.3 6.2-7.9 9.6-18.8 9.6-31.4l.3-222.1c0-23.5-10.1-43.1-27.8-53.7-17.3-10.5-39.8-10.7-57.3-.5-17.7 10.4-27.9 29.8-28 53.3-.1 66.3-.2 199-.3 232.3-.1 56.6 39.6 86.5 78.9 86.904 20.3.196 40.6-7.604 55.7-22.804 14-14.3 23.4-35.3 23.4-62.7l.1-192.8c.6-6.6-4.5-11.8-10.7-11.8z"/>
</svg>
